svg/folder-git.svg

<?xml version="1.0" encoding="UTF-8"?>
<svg xmlns="http://www.w3.org/2000/svg" xmlns:xlink="http://www.w3.org/1999/xlink" width="32" height="32" viewBox="0 0 32 32">
<path fill-rule="nonzero" fill="rgb(60%, 60%, 60%)" fill-opacity="1" d="M 28.800781 6.398438 L 14.398438 6.398438 L 11.199219 3.199219 L 3.199219 3.199219 C 1.433594 3.207031 0.00390625 4.636719 0 6.398438 L 0 12.800781 L 32 12.800781 L 32 9.601562 C 31.996094 7.832031 30.566406 6.402344 28.800781 6.398438 M 28.800781 6.398438 "/>
<path fill-rule="nonzero" fill="rgb(72.941176%, 72.941176%, 72.941176%)" fill-opacity="1" d="M 28.800781 6.398438 L 3.199219 6.398438 C 1.433594 6.402344 0.00390625 7.835938 0 9.601562 L 0 25.601562 C 0.0078125 27.367188 1.4375 28.792969 3.199219 28.800781 L 28.800781 28.800781 C 30.566406 28.792969 31.996094 27.363281 32 25.601562 L 32 9.601562 C 31.996094 7.832031 30.566406 6.402344 28.800781 6.398438 M 28.800781 6.398438 "/>
<path fill-rule="nonzero" fill="rgb(53.333333%, 53.333333%, 53.333333%)" fill-opacity="1" d="M 22.785156 17.535156 L 16.609375 11.359375 C 16.257812 11.007812 15.6875 11.007812 15.332031 11.359375 L 14.046875 12.640625 L 15.648438 14.238281 C 16.042969 14.113281 16.472656 14.210938 16.769531 14.496094 C 17.054688 14.789062 17.152344 15.265625 17.023438 15.617188 L 18.59375 17.183594 C 18.984375 17.054688 19.417969 17.152344 19.710938 17.441406 C 20.128906 17.867188 20.128906 18.550781 19.710938 18.976562 C 19.285156 19.390625 18.605469 19.390625 18.175781 18.976562 C 17.871094 18.664062 17.785156 18.199219 17.953125 17.792969 L 16.511719 16.351562 L 16.511719 20.191406 L 16.800781 20.382812 C 17.214844 20.8125 17.214844 21.492188 16.800781 21.921875 C 16.375 22.335938 15.695312 22.335938 15.265625 21.921875 C 14.847656 21.503906 14.816406 20.800781 15.230469 20.382812 C 15.328125 20.289062 15.425781 20.191406 15.550781 20.160156 L 15.550781 16.292969 C 15.457031 16.222656 15.328125 16.160156 15.230469 16.0625 C 14.925781 15.75 14.839844 15.285156 15.007812 14.878906 L 13.441406 13.28125 L 9.214844 17.503906 C 8.863281 17.859375 8.863281 18.429688 9.214844 18.785156 L 15.359375 24.929688 C 15.710938 25.28125 16.285156 25.28125 16.640625 24.929688 L 22.753906 18.816406 C 23.136719 18.433594 23.136719 17.855469 22.785156 17.535156 M 22.785156 17.535156 "/>
</svg>

<svg role="img" viewBox="0 0 32 32" height="32" width="32" xmlns="http://www.w3.org/2000/svg"><path d="M28.8 6.398H14.399L11.2 3.2h-8A3.21 3.21 0 0 0 0 6.4v6.4h32V9.6a3.207 3.207 0 0 0-3.2-3.203m0 0" fill="rgb(60%, 60%, 60%)"/><path d="M28.8 6.398H3.2A3.21 3.21 0 0 0 0 9.602v16A3.213 3.213 0 0 0 3.2 28.8h25.6a3.21 3.21 0 0 0 3.2-3.2v-16a3.207 3.207 0 0 0-3.2-3.203m0 0" fill="rgb(72.941176%, 72.941176%, 72.941176%)"/><path d="M22.785 17.535 16.61 11.36a.905.905 0 0 0-1.277 0l-1.285 1.282 1.601 1.597a1.125 1.125 0 0 1 1.122.258c.285.293.382.77.253 1.121l1.57 1.567a1.1 1.1 0 0 1 1.118.257c.418.426.418 1.11 0 1.536a1.104 1.104 0 0 1-1.535 0 1.094 1.094 0 0 1-.223-1.184l-1.441-1.441v3.84l.289.19a1.11 1.11 0 0 1 0 1.54 1.104 1.104 0 0 1-1.535 0c-.418-.418-.45-1.121-.036-1.54.098-.093.196-.19.32-.222v-3.867c-.093-.07-.222-.133-.32-.23a1.094 1.094 0 0 1-.222-1.184l-1.569-1.6-4.226 4.223a.91.91 0 0 0 0 1.281l6.144 6.145a.91.91 0 0 0 1.282 0l6.113-6.114c.383-.382.383-.96.031-1.28m0 0" fill="rgb(53.333333%, 53.333333%, 53.333333%)"/></svg>
